X:1
T:Sarpy, 887.887
T:Sarpy, 887.887
T:Charles Wesley, Jr. (1757-1834)
T:Public Domain Courtesy of the Cyber Hymnal™
C:Charles Wesley, Jr. (1757-1834)
Z:Public Domain
Z:Courtesy of the Cyber Hymnal™
%%score ( 1 2 ) ( 3 4 )
L:1/8
Q:1/4=110
M:4/4
K:D
V:1 treble 
V:2 treble 
V:3 bass 
V:4 bass 
V:1
 [DF]3 [CE] D2 ([CE][DF]) | [EG]2 [DF]2 [DF]2 [CE]2 | [DA]2 [DA]2 [DA]2 (dF) | %3
 [DG]2 [EG]2 [DG]2 [DF]2 | [Fd]2 [FB]2 [E^G]2 [EA]2 | [Ec]2 [DB]2 [CA]4 | [DA]2 [FA]2 A3 z G | %7
 [DF]2 [CE]2 (AF) D2 | [E=c]2 [Ec]2 [^DB]2 E2 | ^D2 [DA]2 (AF) G2 | [CF]2 [CE]2 [DA]2 [Dd]2 | %11
 [DF]2 [CE]2 D4 |] %12
V:2
 x4 D2 x2 | x8 | x6 D2 | x8 | x8 | x8 | x4 E2 D2 x | x4 D2 D2 | x6 E2 | ^D2 D2 (E=D) x2 | x8 | %11
 x4 D4 |] %12
V:3
 [D,A,]3 [F,G,] [F,A,]2 A,2 | [C,A,]2 [D,A,]2 A,2 [A,,A,]2 | [D,F,]2 [F,D]2 B,2 [B,,B,]2 | %3
 [B,,G,]2 [C,A,]2 [D,A,]2 [D,A,]2 | [B,,B,]2 [E,B,]2 [E,B,]2 A,2 | A,2 ^G,2 [A,,A,]4 | %6
 [D,F,]2 D2 C2 [B,D]2 x | [A,D]2 [G,A,]2 [F,A,]2 [F,A,]2 | [A,,A,]2 A,2 [A,B,]2 [G,B,]2 | %9
 [F,A,]2 [B,,B,]2 [E,B,]2 [E,B,]2 | A,2 [G,A,]2 [F,A,]2 [B,,G,]2 | [A,,A,]2 [A,,G,]2 [D,F,]4 |] %12
V:4
 x6 (E,D,) | x4 A,2 x2 | x4 B,2 x2 | x8 | x6 (C,A,,) | E,4 x4 | x2 D2 C2 x3 | x8 | x2 A,2 x4 | x8 | %10
 A,2 x6 | x8 |] %12

